icons/square/48/qcad.svg

<svg width="48" height="48" version="1.1" viewBox="0 0 48 48.000001" xmlns="http://www.w3.org/2000/svg">
 <defs>
  <linearGradient id="linearGradient4501" x1="-47" x2="-1" y1="2.8779e-15" y2="6.1232e-17" gradientUnits="userSpaceOnUse">
   <stop style="stop-color:#e9e9e9" offset="0"/>
   <stop style="stop-color:#f3f3f3" offset="1"/>
  </linearGradient>
 </defs>
 <g transform="translate(0 3.949e-5)">
  <path d="m1 43v0.25c0 2.216 1.784 4 4 4h38c2.216 0 4-1.784 4-4v-0.25c0 2.216-1.784 4-4 4h-38c-2.216 0-4-1.784-4-4zm0 0.5v0.5c0 2.216 1.784 4 4 4h38c2.216 0 4-1.784 4-4v-0.5c0 2.216-1.784 4-4 4h-38c-2.216 0-4-1.784-4-4z" style="opacity:.02"/>
  <path d="m1 43.25v0.25c0 2.216 1.784 4 4 4h38c2.216 0 4-1.784 4-4v-0.25c0 2.216-1.784 4-4 4h-38c-2.216 0-4-1.784-4-4z" style="opacity:.05"/>
  <path d="m1 43v0.25c0 2.216 1.784 4 4 4h38c2.216 0 4-1.784 4-4v-0.25c0 2.216-1.784 4-4 4h-38c-2.216 0-4-1.784-4-4z" style="opacity:.1"/>
 </g>
 <rect transform="rotate(-90)" x="-47" y="1" width="46" height="46" rx="4" style="fill:url(#linearGradient4501)"/>
 <path d="m8.002 1v5.5l-0.0019 0.00195v0.5h-7.0001v1.002l7-0.00195v7h-7v1h6.998v7h-6.998v1h6.998v7h-6.998v1h6.998v7l-6.998-2e-3v1.002h7v6.998h1l-2e-3 -5.5645 0.0039 0.0039v-1.4375h6.9961v6.998h1.0039v-6.9961h6.9961v6.9961h1v-6.998h7v6.998h1v-6.9961l7-0.0039v0.5l2e-3 -2e-3v6.502h1v-7h6v-1h-6l-2e-3 -6.9961h6.002v-1.0039h-6.002v-6.9961h6.002v-1.0039h-6.002v-6.9961h6.002v-1.0039h-6l2e-3 -6.9961h5.998v-1h-5.998v-6.0039h-1v5.5098l-0.0059-0.00586v0.5l-6.9961-0.00391v-6h-1.0039v6.002h-6.9961v-6.002h-1v6h-7v-6h-1v6.002h-7v-1.4395l0.0019-4.5625h-1zm1 7.0039h6.998v6.9961h-6.998zm8 0h6.998v6.9961h-6.998zm8 0h6.998v6.9961h-6.998zm8 0h6.998v6.9961h-6.998zm-24 8h6.998v6.9961h-6.998zm8 0h6.998v6.9961h-6.998zm8 0h6.998v6.9961h-6.998zm8 0h6.998v6.9961h-6.998zm-24 8h6.998v6.9961h-6.998zm8 0h6.998v6.9961h-6.998zm8 0h6.998v6.9961h-6.998zm8 0h6.998v6.9961h-6.998zm-24 8h6.998v6.9961h-6.998zm8 0h6.998v6.9961h-6.998zm8 0h6.998v6.9961h-6.998zm8 0h6.998v6.9961h-6.998z" style="fill:#a0dad0"/>
 <g transform="translate(0 3.949e-5)">
  <g transform="translate(0 -1004.4)">
   <path d="m1 1043.4v4c0 2.216 1.784 4 4 4h38c2.216 0 4-1.784 4-4v-4c0 2.216-1.784 4-4 4h-38c-2.216 0-4-1.784-4-4z" style="opacity:.1"/>
  </g>
 </g>
 <path d="m24 11a13 13 0 0 0 -13 13 13 13 0 0 0 13 13 13 13 0 0 0 6.789 -1.934l1.033 1.035c0.275 0.275 0.722 0.269 1-0.012l0.289-0.289c0.28-0.281 0.284-0.729 1e-3 -1l-0.807-0.809a13 13 0 0 0 0.176 -0.154l0.797 0.797c0.275 0.275 0.722 0.269 1-0.012l0.289-0.289c0.28-0.281 0.284-0.729 1e-3 -1l-0.799-0.799a13 13 0 0 0 0.156 -0.18l0.811 0.813c0.275 0.275 0.722 0.269 1-0.012l0.289-0.289c0.28-0.281 0.284-0.729 1e-3 -1l-1.014-1.016a13 13 0 0 0 1.955 -6.84 13 13 0 0 0 -13 -13zm0 4a9 9 0 0 1 9 9 9 9 0 0 1 -0.898 3.891l-3.547-3.555c-0.275-0.275-0.722-0.271-1 1e-3l-0.289 0.291c-0.28 0.281-0.284 0.729-1e-3 1l3.854 3.861a9 9 0 0 1 -0.145 0.191l-3.877-3.887c-0.275-0.275-0.722-0.269-1 0.012l-0.289 0.289c-0.28 0.281-0.284 0.729-1e-3 1l3.873 3.883a9 9 0 0 1 -0.186 0.145l-3.854-3.861c-0.275-0.275-0.722-0.271-1 1e-3l-0.289 0.291c-0.28 0.281-0.284 0.729-1e-3 1l3.535 3.541a9 9 0 0 1 -3.854 0.877 9 9 0 0 1 -9 -9 9 9 0 0 1 9 -9zm-3 6 2.686 6.947 4.248-4.256zm15.709 11.486-4.248 4.256c2.163 1.218 5.554-2.155 4.248-4.256z" style="opacity:.1"/>
 <path d="m24 9.9999a13 13 0 0 0 -13 13 13 13 0 0 0 13 13 13 13 0 0 0 13 -13 13 13 0 0 0 -13 -13zm0 4a9 9 0 0 1 9 9 9 9 0 0 1 -9 9 9 9 0 0 1 -9 -9 9 9 0 0 1 9 -9z" style="fill:#3d538b"/>
 <g transform="matrix(.70824 -.70824 .70824 .70824 10.874 5.0544)">
  <g transform="matrix(.70681 -.70824 .70681 .70824 -19.906 6.8352)">
   <rect transform="matrix(.7078 .70641 -.70784 .70638 0 0)" x="13.518" y="17.843" width="1.84" height="11.988" rx=".715" ry=".699" style="fill:#e78816"/>
   <rect transform="matrix(.7078 .70641 -.70784 .70638 0 0)" x="15.593" y="17.843" width="1.84" height="11.988" rx=".715" ry=".699" style="fill:#e78816"/>
   <rect transform="matrix(.7078 .70641 -.70784 .70638 0 0)" x="17.669" y="17.843" width="1.84" height="11.988" rx=".715" ry=".699" style="fill:#e78816"/>
   <path d="m4 19.345-2.678 6.915-4.251-4.243z" style="fill:#eed28e"/>
   <path d="m4 19.345-3.08 1.187 1.89 1.887 1.19-3.074" style="fill:#2d2d2d"/>
   <path d="m-7.44 35.01-4.251-4.243c-1.213 2.157 2.157 5.544 4.251 4.243z" style="fill:#b85a5a"/>
  </g>
 </g>
</svg>

<svg width="48" height="48" viewBox="0 0 48 48.000001" xmlns="http://www.w3.org/2000/svg">
  <defs>
    <linearGradient id="a" x1="-47" x2="-1" gradientUnits="userSpaceOnUse">
      <stop offset="0" stop-color="#e9e9e9"/>
      <stop offset="1" stop-color="#f3f3f3"/>
    </linearGradient>
  </defs>
  <path d="M1 43v.25c0 2.216 1.784 4 4 4h38c2.216 0 4-1.784 4-4V43c0 2.216-1.784 4-4 4H5c-2.216 0-4-1.784-4-4zm0 .5v.5c0 2.216 1.784 4 4 4h38c2.216 0 4-1.784 4-4v-.5c0 2.216-1.784 4-4 4H5c-2.216 0-4-1.784-4-4z" opacity=".02"/>
  <path d="M1 43.25v.25c0 2.216 1.784 4 4 4h38c2.216 0 4-1.784 4-4v-.25c0 2.216-1.784 4-4 4H5c-2.216 0-4-1.784-4-4z" opacity=".05"/>
  <path d="M1 43v.25c0 2.216 1.784 4 4 4h38c2.216 0 4-1.784 4-4V43c0 2.216-1.784 4-4 4H5c-2.216 0-4-1.784-4-4z" opacity=".1"/>
  <rect transform="rotate(-90)" x="-47" y="1" width="46" height="46" rx="4" fill="url(#a)"/>
  <path d="M8.002 1v5.5L8 6.502v.5H1v1.002l7-.002v7H1v1h6.998v7H1v1h6.998v7H1v1h6.998v7L1 39v1.002h7V47h1l-.002-5.565.004.004v-1.437h6.996V47h1.004v-6.996h6.996V47h1v-6.998h7V47h1v-6.996l7-.004v.5l.002-.002V47h1v-7h6v-1h-6l-.002-6.996H47V31h-6.002v-6.996H47V23h-6.002v-6.996H47V15h-6l.002-6.996H47v-1h-5.998V1h-1v5.51l-.006-.006v.5L33 7V1h-1.004v6.002H25V1h-1v6h-7V1h-1v6.002H9v-1.44L9.002 1h-1zm1 7.004H16V15H9.002zm8 0H24V15h-6.998zm8 0H32V15h-6.998zm8 0H40V15h-6.998zm-24 8H16V23H9.002zm8 0H24V23h-6.998zm8 0H32V23h-6.998zm8 0H40V23h-6.998zm-24 8H16V31H9.002zm8 0H24V31h-6.998zm8 0H32V31h-6.998zm8 0H40V31h-6.998zm-24 8H16V39H9.002zm8 0H24V39h-6.998zm8 0H32V39h-6.998zm8 0H40V39h-6.998z" fill="#a0dad0"/>
  <path d="M1 39v4c0 2.216 1.784 4 4 4h38c2.216 0 4-1.784 4-4v-4c0 2.216-1.784 4-4 4H5c-2.216 0-4-1.784-4-4zm23-28a13 13 0 0 0-13 13 13 13 0 0 0 13 13 13 13 0 0 0 6.789-1.934l1.033 1.035a.704.704 0 0 0 1-.012l.289-.289a.698.698 0 0 0 .001-1l-.807-.809a13 13 0 0 0 .176-.154l.797.797a.704.704 0 0 0 1-.012l.289-.289a.698.698 0 0 0 .001-1l-.799-.799a13 13 0 0 0 .156-.18l.811.813a.704.704 0 0 0 1-.012l.289-.289a.698.698 0 0 0 .001-1l-1.014-1.016a13 13 0 0 0 1.955-6.84 13 13 0 0 0-13-13zm0 4a9 9 0 0 1 9 9 9 9 0 0 1-.898 3.891l-3.547-3.555a.712.712 0 0 0-1 .001l-.289.291a.698.698 0 0 0-.001 1l3.854 3.861a9 9 0 0 1-.145.191l-3.877-3.887a.704.704 0 0 0-1 .012l-.289.289a.698.698 0 0 0-.001 1l3.873 3.883a9 9 0 0 1-.186.145l-3.854-3.861a.712.712 0 0 0-1 .001l-.289.291a.698.698 0 0 0-.001 1l3.535 3.541a9 9 0 0 1-3.854.877 9 9 0 0 1-9-9 9 9 0 0 1 9-9zm-3 6l2.686 6.947 4.248-4.256zm15.709 11.486l-4.248 4.256c2.163 1.218 5.554-2.155 4.248-4.256z" opacity=".1"/>
  <path d="M24 10a13 13 0 0 0-13 13 13 13 0 0 0 13 13 13 13 0 0 0 13-13 13 13 0 0 0-13-13zm0 4a9 9 0 0 1 9 9 9 9 0 0 1-9 9 9 9 0 0 1-9-9 9 9 0 0 1 9-9z" fill="#3d538b"/>
  <g transform="matrix(-.00101 -1.0022 1.0022 .00101 1.617 23.994)">
    <rect transform="rotate(44.944) skewX(-.115)" x="13.518" y="17.843" width="1.84" height="11.988" rx=".715" ry=".699" fill="#e78816"/>
    <rect transform="rotate(44.944) skewX(-.115)" x="15.593" y="17.843" width="1.84" height="11.988" rx=".715" ry=".699" fill="#e78816"/>
    <rect transform="rotate(44.944) skewX(-.115)" x="17.669" y="17.843" width="1.84" height="11.988" rx=".715" ry=".699" fill="#e78816"/>
    <path d="M4 19.345L1.322 26.26l-4.251-4.243z" fill="#eed28e"/>
    <path d="M4 19.345L.92 20.532l1.89 1.887L4 19.345" fill="#2d2d2d"/>
    <path d="M-7.44 35.01l-4.251-4.243c-1.213 2.157 2.157 5.544 4.251 4.243z" fill="#b85a5a"/>
  </g>
</svg>
